X:1
T:Intermezzo
T:Intermezzo
T:from Piano Quartet No. 2, Op. 2
T:FELIX MENDELSSOHN (1809-47) arranged by Michael Aston
C:FELIX MENDELSSOHN (1809-47) arranged by Michael Aston
%%score { ( 1 4 ) | ( 2 3 ) }
L:1/8
M:6/8
K:Ab
V:1 treble nm="Piano" snm="Pno."
V:4 treble 
V:2 treble 
V:3 treble 
V:1
!mf! c | (Pc=Bc afd) | (c3 =B) z _B | (PB=AB gGc) | (B3 _A) z c | (PB=AB fd_A) | (PGFG ec_G) | %7
 (Fdc BA=G) | (B3 A) z z | z6 | z6 | z6!p! | z6 | z6 | z6 | z6 | z3 z z!mf! e | (Pe=de c'ef) | %18
 (e3 =d) z _d | (Pdcd bde) | (d3 c) z c | (Pdcd afc) | (P=B=AB g=e_B) | (P=AGA f=d_A) | G2 z4 | %25
 z3!pp! A3 | _G3 B3 | A3 d3- | d z!f! z4 | z3!p! d3 | c3 e3- | e(=ef{/a} gfg | b2 a) z!f! z2 | z6 | %34
 z6 | z6 | z3 z z!mf! c | (Pc=Bc afd) | (c3 =B) z _B | (PB=AB gdc) | (B3 _A) z2 | z6 | z6 | z6 | %44
!f! (f2 e dc=B) | c6- | c!p!(dc) z (BA) | z (AG) z (F=E) | z6 |!f! (c2 =d =efg | a) z z!p! f2 z | %51
 d2 z c2 z |!p! (c6- | c3 d3) | =e3- e2 c | (d3 c3) |!pp! c2 z z Ac | z fa z fa | z c'b z bg | %59
 z =eg ege | f z z FA!p!F | [B=e]6 |!pp! [Af]6!pp! | [B=e]6 | A2 c AcA |"_cresc." =AFA cAF | %66
 FB=d B3 | [=B=d]6 | [cg] z z z2 (c | d3 c3) |!f! (f2 c dBG) | (F3 !turn!A2 G | F2) z4 | %73
!mp! z3 (f'2 =a) | (c'b) z4 | z3"_cresc." (g'2 =b) | (=d'c') z4 | z3!8va(! c''2 =e' | %78
!f! (f'c'd'!8va)! =abg) | (f3 !turn!_a2 g | f)!pp! z z"_dolce" (_g3 | f3 e3) | (f3 e3 | d3 c3 | %84
 B) z z4 | z6 | c'3 d'3- | d'(ba gf=e | f) z z4!p! | z6 | z6 | z6 | z6 | z6 | z6 | z6 | z3 z z (c | %97
 d3 c3) | c z z z _GF | z BF z b=e | [ac']6 | [gb]6 | [fa]6 | (f3 =e3 |!pp! f2) z z Ac | %105
 z cf z fa | z ac' z c'f' | z f'a' z!8va(! a'c'' | a''!8va)! z z A z2 | F z z z2 z |] %110
V:2
 z | z6 | z6 | z6 | z6 | z6 | z6 | z6 | z6 | z6 | z6 | z3 z z (c- | c=d=e f3- | f6) | e6 | %15
 (dfe dcB) | (ded cdB) | c3 (F3- | FEF AFG) | F3 (E3- | E=DE _GEA) | A z z [FA]3 | (F3 =E3) | %23
 (F3 =B,3) | [C=E]2 C({/D} C=B,C) | D6 | z6 | z6 | z3 (=DCD) | E2 z [E-G]3 | [EA]6 | E6- | %32
 E3 (=E=DE) | F6- | F2 z4 | z6 | z6 | z6 | z6 | z6 | z3 z z A | (PGFG dBF) | (P=E=DE) (c3- | %43
 cBA GF=E | F2) z4 | z6 | z3 F2 z | D2 z B,2 z | A,2 z4 | (=E2 F GAB | c) z z A2 z | B2 z B2 z | %52
 AFA FAF | AFA FAc | cBG BGB | G=EG BGE | [A,F][A,F][CA] FCF | FAc FAc | =EGc EGc | =EBE GEB | %60
 AFA z z (C | D3 C3) | C z z FCF | B,GB, CGC | CFA FAF | C=A,C A,CA, | B,FB z z (G | A3 G3) | %68
 G z z4 | [=EG]6 | F3 GFD | C6- | C2 z4 | =A3- A2 c | (f3 B3) | =B3- B2 =d | g3 z z (c | d3 c3) | %78
 (fcd =ABG) | (_A3 B3 | A) z z B3 | A6- | A3 _G3 | B3 F3 | F6 | [FG]6 | [FA]6 | (G3 B3 | %88
 [FA]) z z (_G3 | F3 E3) | (F3 E3 | D3 C3) | (D2 F E2 D | C2 B, E2 D | C2) F A3- | A(BA GF=E) | %96
 F z z z FC | z FD z =EC | z FC F_E=A, | FDB, F=EC | [F,F] z z z z (c | d3 c3) | (d3 c3) | %103
 (=B3 _B3 | A2) z z CF | z FA z Ac | z cf z fa | z ac' z c'f' | a' z z C z2 | A, z z z2 z |] %110
V:3
 x | x6 | x6 | x6 | x6 | x6 | x6 | x6 | x6 | x6 | x6 | x6 | x6 | x6 | x6 | x6 | x6 | x6 | x6 | %19
 (B6 | A2) z4 | x6 | G6 | F6 | x6 | x6 | x6 | x6 | x6 | x6 | x6 | ((G3 d3 | c6)) | x6 | x6 | x6 | %36
 x6 | x6 | x6 | x6 | x6 | x6 | x6 | x6 | x6 | x6 | x6 | x6 | x6 | x6 | x6 | x6 | x6 | x6 | x6 | %55
 x6 | x6 | x6 | x6 | x6 | x6 | x6 | x6 | x6 | x6 | x6 | x6 | x6 | x6 | x6 | x6 | x6 | x6 | x6 | %74
 x6 | x6 | x6 | x6 | x6 | x6 | x6 | x6 | x6 | x6 | x6 | x6 | x6 | =E6 | x6 | x6 | x6 | x6 | x6 | %93
 x6 | x6 | x6 | x6 | x6 | x6 | x6 | x6 | x6 | x6 | x6 | x6 | x6 | x6 | x6 | x6 | x6 |] %110
V:4
 x | x6 | x6 | x6 | x6 | x6 | x6 | x6 | x6 | x6 | x6 | x6 | x6 | x6 | x6 | x6 | x6 | x6 | x6 | x6 | %20
 x6 | x6 | x6 | x6 | x6 | x6 | x6 | x6 | x6 | x6 | x6 | x6 | x6 | x6 | x6 | x6 | x6 | x6 | x6 | %39
 x6 | x6 | x6 | x6 | x6 | x6 | x6 | x6 | x6 | x6 | x6 | x6 | x6 | x6 | x6 | x6 | x6 | x6 | x6 | %58
 x6 | x6 | x6 | x6 | x6 | x6 | f6 | x6 | x6 | x6 | x6 | x6 | x6 | x6 | x6 | x6 | x6 | x6 | x6 | %77
 x3!8va(! x3 | x3!8va)! x3 | x6 | x6 | x6 | x6 | x6 | x6 | x6 | x6 | x6 | x6 | x6 | x6 | x6 | x6 | %93
 x6 | x6 | x6 | x6 | x6 | x6 | x6 | x6 | x6 | x6 | g6 | x6 | x6 | x6 | x4!8va(! x2 | x!8va)! x5 | %109
 x6 |] %110

